X: 1
T: Brig O' Blair
Z: pbsinclair42
S: https://thesession.org/tunes/15550#setting29142
R: polka
M: 2/4
L: 1/8
K: Amaj
E2 | c>d ec | A2 EA | D>E FA | d2 cd | e2 E2 | e>c BA | B2 B>c | B2 E2 |
c>d ec | A2 EA | D>E FA | d2 cd | e2 E2 | e>c Bc | A2 A>B | A2 :|
|: GA | B2 EG | B2 A>B | c2 Ee | c3 E | D>E FA | FE ec | B2 B>c | B2 E2 |
c>d ec | A2 EA | D>E FA | d2 cd | e2 E2 | e>c Bc | A2 A>B | A2 :|
